X:1591
T:Jerry Daly's Hornpipe
M:C|
L:1/8
R:Hornpipe
N:"2nd Setting."
B:O'Neill's 1591
N:"Collected by J.O'Neill."
Z:Transcribed by Michael D. Long, 9/29/98
K:A
ed|c2 Bc ABcA|GFEF GABd|egfa gedc|B2 G2 G2 ed|\
c2 Bc ABcA|GFEF GABd|egfa gedc|A2 A2 A2:|
|:e2|agab aged|B2 G2 G2 ef|agfga gfed|e2 a2 a2 ed|\
c2 Bc ABcA|GFEF GABd|egfa gedc|A2 A2 A2:|
